colour_profiles/XG2431/XG2431.cal
CAL    

DESCRIPTOR "Argyll Device Calibration Curves"
ORIGINATOR "Argyll dispcal"
CREATED "Fri Sep 13 19:53:27 2024"
DEVICE_CLASS "DISPLAY"
COLOR_REP "RGB"
VIDEO_LUT_CALIBRATION_POSSIBLE "YES"
TV_OUTPUT_ENCODING "NO"
DEVICE_TYPE "l"
TARGET_WHITE_XYZ "185.035670 194.739187 211.784043"
TARGET_GAMMA "-2.200000"
DEGREE_OF_BLACK_OUTPUT_OFFSET "1.000000"
BLACK_POINT_CORRECTION "0.174230"
BLACK_NEUTRAL_BLEND_RATE "4.000000"
QUALITY "medium"

NUMBER_OF_FIELDS 4
BEGIN_DATA_FORMAT
RGB_I RGB_R RGB_G RGB_B 
END_DATA_FORMAT

NUMBER_OF_SETS 256
BEGIN_DATA
0.00000 0.00342142 0.000559832 0.00000 
0.00392157 0.00702181 0.00447657 0.00254016 
0.00784314 0.0106602 0.00842174 0.00656732 
0.0117647 0.0143372 0.0123957 0.0106665 
0.0156863 0.0180534 0.0163986 0.0148397 
0.0196078 0.0218095 0.0204310 0.0190888 
0.0235294 0.0256060 0.0244930 0.0234161 
0.0274510 0.0294438 0.0285851 0.0278236 
0.0313725 0.0333233 0.0327075 0.0323137 
0.0352941 0.0372453 0.0368621 0.0368908 
0.0392157 0.0412078 0.0410508 0.0415467 
0.0431373 0.0451980 0.0452658 0.0462545 
0.0470588 0.0492069 0.0494991 0.0509802 
0.0509804 0.0532314 0.0537408 0.0556850 
0.0549020 0.0572681 0.0579779 0.0603375 
0.0588235 0.0613106 0.0621980 0.0649117 
0.0627451 0.0653507 0.0663902 0.0693870 
0.0666667 0.0693783 0.0705455 0.0737499 
0.0705882 0.0733861 0.0746528 0.0780040 
0.0745098 0.0773727 0.0787114 0.0821558 
0.0784314 0.0813445 0.0827247 0.0862158 
0.0823529 0.0853011 0.0866958 0.0901949 
0.0862745 0.0892427 0.0906292 0.0941042 
0.0901961 0.0931695 0.0945267 0.0979541 
0.0941176 0.0970793 0.0983887 0.101758 
0.0980392 0.100966 0.102220 0.105528 
0.101961 0.104830 0.106029 0.109273 
0.105882 0.108669 0.109823 0.112998 
0.109804 0.112485 0.113601 0.116703 
0.113725 0.116272 0.117362 0.120395 
0.117647 0.120029 0.121110 0.124073 
0.121569 0.123755 0.124846 0.127747 
0.125490 0.127456 0.128573 0.131418 
0.129412 0.131133 0.132294 0.135086 
0.133333 0.134790 0.136011 0.138750 
0.137255 0.138428 0.139723 0.142405 
0.141176 0.142053 0.143427 0.146054 
0.145098 0.145664 0.147128 0.149698 
0.149020 0.149270 0.150827 0.153329 
0.152941 0.152876 0.154520 0.156952 
0.156863 0.156485 0.158210 0.160563 
0.160784 0.160103 0.161897 0.164161 
0.164706 0.163732 0.165578 0.167752 
0.168627 0.167371 0.169257 0.171341 
0.172549 0.171022 0.172936 0.174932 
0.176471 0.174690 0.176617 0.178525 
0.180392 0.178375 0.180295 0.182111 
0.184314 0.182073 0.183969 0.185696 
0.188235 0.185776 0.187643 0.189279 
0.192157 0.189490 0.191316 0.192855 
0.196078 0.193208 0.194985 0.196425 
0.200000 0.196923 0.198648 0.199991 
0.203922 0.200634 0.202308 0.203558 
0.207843 0.204340 0.205964 0.207125 
0.211765 0.208042 0.209612 0.210689 
0.215686 0.211739 0.213253 0.214253 
0.219608 0.215431 0.216887 0.217817 
0.223529 0.219118 0.220511 0.221377 
0.227451 0.222804 0.224133 0.224941 
0.231373 0.226490 0.227757 0.228514 
0.235294 0.230186 0.231382 0.232091 
0.239216 0.233890 0.235010 0.235672 
0.243137 0.237601 0.238650 0.239268 
0.247059 0.241321 0.242302 0.242876 
0.250980 0.245052 0.245969 0.246498 
0.254902 0.248795 0.249653 0.250141 
0.258824 0.252549 0.253353 0.253800 
0.262745 0.256318 0.257066 0.257472 
0.266667 0.260099 0.260795 0.261157 
0.270588 0.263892 0.264537 0.264857 
0.274510 0.267691 0.268294 0.268568 
0.278431 0.271496 0.272063 0.272291 
0.282353 0.275309 0.275844 0.276028 
0.286275 0.279123 0.279628 0.279776 
0.290196 0.282933 0.283411 0.283523 
0.294118 0.286736 0.287196 0.287270 
0.298039 0.290536 0.290986 0.291032 
0.301961 0.294337 0.294778 0.294801 
0.305882 0.298134 0.298563 0.298565 
0.309804 0.301924 0.302347 0.302327 
0.313725 0.305708 0.306133 0.306095 
0.317647 0.309484 0.309926 0.309869 
0.321569 0.313262 0.313729 0.313655 
0.325490 0.317042 0.317544 0.317448 
0.329412 0.320820 0.321370 0.321249 
0.333333 0.324596 0.325203 0.325056 
0.337255 0.328366 0.329044 0.328867 
0.341176 0.332130 0.332893 0.332685 
0.345098 0.335887 0.336738 0.336506 
0.349020 0.339636 0.340577 0.340318 
0.352941 0.343377 0.344409 0.344120 
0.356863 0.347109 0.348229 0.347911 
0.360784 0.350830 0.352031 0.351688 
0.364706 0.354539 0.355819 0.355448 
0.368627 0.358237 0.359595 0.359197 
0.372549 0.361929 0.363358 0.362932 
0.376471 0.365616 0.367116 0.366659 
0.380392 0.369305 0.370867 0.370381 
0.384314 0.372996 0.374613 0.374094 
0.388235 0.376692 0.378357 0.377803 
0.392157 0.380398 0.382104 0.381517 
0.396078 0.384114 0.385858 0.385245 
0.400000 0.387840 0.389616 0.388989 
0.403922 0.391571 0.393372 0.392736 
0.407843 0.395303 0.397122 0.396476 
0.411765 0.399030 0.400876 0.400207 
0.415686 0.402755 0.404638 0.403951 
0.419608 0.406492 0.408406 0.407711 
0.423529 0.410240 0.412174 0.411482 
0.427451 0.413995 0.415933 0.415246 
0.431373 0.417749 0.419687 0.418998 
0.435294 0.421503 0.423436 0.422745 
0.439216 0.425259 0.427181 0.426491 
0.443137 0.429014 0.430927 0.430238 
0.447059 0.432777 0.434677 0.433989 
0.450980 0.436553 0.438431 0.437750 
0.454902 0.440338 0.442186 0.441514 
0.458824 0.444128 0.445953 0.445277 
0.462745 0.447926 0.449735 0.449054 
0.466667 0.451739 0.453526 0.452840 
0.470588 0.455563 0.457326 0.456629 
0.474510 0.459392 0.461135 0.460424 
0.478431 0.463220 0.464954 0.464224 
0.482353 0.467055 0.468775 0.468030 
0.486275 0.470888 0.472603 0.471832 
0.490196 0.474725 0.476437 0.475636 
0.494118 0.478563 0.480276 0.479441 
0.498039 0.482404 0.484119 0.483246 
0.501961 0.486243 0.487963 0.487049 
0.505882 0.490078 0.491809 0.490852 
0.509804 0.493911 0.495657 0.494652 
0.513725 0.497741 0.499508 0.498452 
0.517647 0.501569 0.503358 0.502260 
0.521569 0.505401 0.507207 0.506075 
0.525490 0.509239 0.511054 0.509899 
0.529412 0.513081 0.514901 0.513729 
0.533333 0.516929 0.518750 0.517566 
0.537255 0.520784 0.522601 0.521413 
0.541176 0.524648 0.526456 0.525270 
0.545098 0.528523 0.530310 0.529136 
0.549020 0.532409 0.534164 0.533009 
0.552941 0.536303 0.538020 0.536888 
0.556863 0.540204 0.541875 0.540772 
0.560784 0.544104 0.545735 0.544657 
0.564706 0.548004 0.549599 0.548545 
0.568627 0.551910 0.553458 0.552437 
0.572549 0.555818 0.557315 0.556322 
0.576471 0.559727 0.561169 0.560205 
0.580392 0.563636 0.565016 0.564087 
0.584314 0.567539 0.568858 0.567957 
0.588235 0.571433 0.572702 0.571813 
0.592157 0.575325 0.576543 0.575668 
0.596078 0.579216 0.580375 0.579523 
0.600000 0.583101 0.584203 0.583364 
0.603922 0.586978 0.588036 0.587193 
0.607843 0.590851 0.591874 0.591018 
0.611765 0.594726 0.595717 0.594843 
0.615686 0.598608 0.599565 0.598665 
0.619608 0.602496 0.603419 0.602490 
0.623529 0.606392 0.607277 0.606322 
0.627451 0.610290 0.611134 0.610158 
0.631373 0.614184 0.614994 0.613998 
0.635294 0.618079 0.618855 0.617838 
0.639216 0.621982 0.622717 0.621682 
0.643137 0.625894 0.626583 0.625523 
0.647059 0.629819 0.630457 0.629371 
0.650980 0.633754 0.634343 0.633229 
0.654902 0.637697 0.638241 0.637109 
0.658824 0.641642 0.642151 0.641020 
0.662745 0.645591 0.646065 0.644967 
0.666667 0.649540 0.649971 0.648945 
0.670588 0.653482 0.653864 0.652935 
0.674510 0.657413 0.657746 0.656914 
0.678431 0.661331 0.661616 0.660879 
0.682353 0.665235 0.665486 0.664830 
0.686275 0.669143 0.669365 0.668779 
0.690196 0.673066 0.673251 0.672756 
0.694118 0.677005 0.677142 0.676764 
0.698039 0.680955 0.681033 0.680801 
0.701961 0.684911 0.684916 0.684852 
0.705882 0.688867 0.688786 0.688898 
0.709804 0.692815 0.692643 0.692921 
0.713725 0.696753 0.696492 0.696920 
0.717647 0.700679 0.700339 0.700902 
0.721569 0.704592 0.704191 0.704881 
0.725490 0.708490 0.708049 0.708866 
0.729412 0.712373 0.711917 0.712858 
0.733333 0.716247 0.715799 0.716859 
0.737255 0.720120 0.719694 0.720872 
0.741176 0.723989 0.723602 0.724895 
0.745098 0.727854 0.727528 0.728926 
0.749020 0.731721 0.731463 0.732974 
0.752941 0.735585 0.735406 0.737026 
0.756863 0.739446 0.739355 0.741081 
0.760784 0.743310 0.743313 0.745140 
0.764706 0.747179 0.747277 0.749202 
0.768627 0.751052 0.751247 0.753269 
0.772549 0.754932 0.755223 0.757337 
0.776471 0.758818 0.759201 0.761407 
0.780392 0.762711 0.763176 0.765477 
0.784314 0.766606 0.767153 0.769543 
0.788235 0.770504 0.771132 0.773612 
0.792157 0.774411 0.775113 0.777680 
0.796078 0.778328 0.779097 0.781750 
0.800000 0.782252 0.783086 0.785827 
0.803922 0.786184 0.787073 0.789917 
0.807843 0.790126 0.791057 0.794003 
0.811765 0.794070 0.795041 0.798077 
0.815686 0.798014 0.799034 0.802146 
0.819608 0.801973 0.803038 0.806234 
0.823529 0.805954 0.807047 0.810338 
0.827451 0.809953 0.811054 0.814439 
0.831373 0.813965 0.815058 0.818526 
0.835294 0.817989 0.819058 0.822601 
0.839216 0.822016 0.823060 0.826671 
0.843137 0.826046 0.827060 0.830739 
0.847059 0.830083 0.831060 0.834801 
0.850980 0.834129 0.835061 0.838869 
0.854902 0.838190 0.839067 0.842944 
0.858824 0.842265 0.843080 0.847034 
0.862745 0.846358 0.847098 0.851138 
0.866667 0.850460 0.851116 0.855242 
0.870588 0.854565 0.855140 0.859345 
0.874510 0.858678 0.859174 0.863463 
0.878431 0.862802 0.863209 0.867591 
0.882353 0.866934 0.867241 0.871710 
0.886275 0.871070 0.871272 0.875826 
0.890196 0.875212 0.875306 0.879950 
0.894118 0.879366 0.879337 0.884087 
0.898039 0.883526 0.883358 0.888221 
0.901961 0.887686 0.887379 0.892359 
0.905882 0.891856 0.891396 0.896508 
0.909804 0.896029 0.895406 0.900652 
0.913725 0.900201 0.899416 0.904804 
0.917647 0.904372 0.903423 0.908958 
0.921569 0.908543 0.907437 0.913119 
0.925490 0.912724 0.911457 0.917289 
0.929412 0.916915 0.915486 0.921468 
0.933333 0.921118 0.919529 0.925656 
0.937255 0.925342 0.923590 0.929863 
0.941176 0.929586 0.927672 0.934086 
0.945098 0.933857 0.931780 0.938336 
0.949020 0.938153 0.935916 0.942605 
0.952941 0.942476 0.940083 0.946899 
0.956863 0.946826 0.944279 0.951217 
0.960784 0.951203 0.948500 0.955555 
0.964706 0.955603 0.952744 0.959912 
0.968627 0.960023 0.957006 0.964285 
0.972549 0.964459 0.961279 0.968668 
0.976471 0.968905 0.965561 0.973061 
0.980392 0.973363 0.969852 0.977464 
0.984314 0.977832 0.974151 0.981876 
0.988235 0.982311 0.978460 0.986299 
0.992157 0.986802 0.982778 0.990732 
0.996078 0.991304 0.987106 0.995175 
1.000000 0.995817 0.991442 0.999628 
END_DATA
CAL    

DESCRIPTOR "Argyll Calibration options and model"
ORIGINATOR "Argyll dispcal"
CREATED "Fri Sep 13 19:53:27 202"

NUMBER_OF_FIELDS 3
BEGIN_DATA_FORMAT
R_P G_P B_P 
END_DATA_FORMAT

NUMBER_OF_SETS 32
BEGIN_DATA
0.0000844768 0.000424611 0.00108832 
0.999916 0.999575 0.998912 
1.475335 1.363499 1.383012 
0.550597 0.477625 0.443393 
0.0933706 0.147034 0.132284 
0.111008 0.153877 0.152614 
0.104951 0.139764 0.148557 
0.0787890 0.106268 0.0993423 
0.0958415 0.0836578 0.0735011 
0.0832254 0.0765356 0.0814427 
0.0651532 0.0680524 0.0834376 
0.0662601 0.0579659 0.0766777 
0.0556675 0.0544351 0.0655360 
0.0501073 0.0501436 0.0589186 
0.0481696 0.0486935 0.0546522 
0.0442522 0.0489145 0.0528275 
0.0448342 0.0484661 0.0518161 
0.0405810 0.0436099 0.0471438 
0.0373710 0.0406797 0.0437038 
0.0352934 0.0390969 0.0415588 
0.0332978 0.0381085 0.0396536 
0.0310715 0.0350098 0.0378565 
0.0284574 0.0348450 0.0359789 
0.0278655 0.0312775 0.0348940 
0.0249648 0.0321936 0.0327642 
0.0233757 0.0305193 0.0304598 
0.0222192 0.0274853 0.0277126 
0.0207175 0.0294516 0.0276267 
0.0201012 0.0263352 0.0271189 
0.0188539 0.0264494 0.0253269 
0.0168204 0.0251285 0.0248022 
0.0157860 0.0245027 0.0225671 
END_DATA
