colour_profiles/DELL2412M/.2.cal
CAL    

DESCRIPTOR "Argyll Device Calibration Curves"
ORIGINATOR "Argyll dispcal"
CREATED "Sat Jun 22 20:08:51 2024"
DEVICE_CLASS "DISPLAY"
COLOR_REP "RGB"
VIDEO_LUT_CALIBRATION_POSSIBLE "YES"
TV_OUTPUT_ENCODING "NO"
NATIVE_TARGET_WHITE ""
TARGET_WHITE_XYZ "142.495460 150.329385 165.008363"
TARGET_GAMMA "-2.000000"
DEGREE_OF_BLACK_OUTPUT_OFFSET "1.000000"
BLACK_POINT_CORRECTION "0.187966"
BLACK_NEUTRAL_BLEND_RATE "4.000000"
QUALITY "medium"

NUMBER_OF_FIELDS 4
BEGIN_DATA_FORMAT
RGB_I RGB_R RGB_G RGB_B 
END_DATA_FORMAT

NUMBER_OF_SETS 256
BEGIN_DATA
0.00000 0.00000 0.00000 0.00000 
0.00392157 0.000408307 0.00000 0.00000 
0.00784314 0.00473250 0.00307243 0.00000 
0.0117647 0.00916816 0.00745915 0.00354274 
0.0156863 0.0137196 0.0119742 0.00752642 
0.0196078 0.0183915 0.0166234 0.0116778 
0.0235294 0.0231887 0.0214126 0.0160078 
0.0274510 0.0281162 0.0263485 0.0205280 
0.0313725 0.0331787 0.0314374 0.0252515 
0.0352941 0.0383781 0.0366825 0.0301888 
0.0392157 0.0437240 0.0420830 0.0353409 
0.0431373 0.0492151 0.0476185 0.0407114 
0.0470588 0.0548401 0.0532705 0.0462823 
0.0509804 0.0605812 0.0590127 0.0520292 
0.0549020 0.0664129 0.0648210 0.0579158 
0.0588235 0.0723055 0.0706685 0.0639037 
0.0627451 0.0782221 0.0765175 0.0699624 
0.0666667 0.0841260 0.0823442 0.0760500 
0.0705882 0.0899863 0.0881377 0.0821302 
0.0745098 0.0957852 0.0938795 0.0881736 
0.0784314 0.101512 0.0995612 0.0941695 
0.0823529 0.107141 0.105162 0.100101 
0.0862745 0.112672 0.110682 0.105930 
0.0901961 0.118087 0.116101 0.111651 
0.0941176 0.123395 0.121431 0.117261 
0.0980392 0.128614 0.126672 0.122774 
0.101961 0.133751 0.131821 0.128188 
0.105882 0.138820 0.136887 0.133517 
0.109804 0.143835 0.141880 0.138767 
0.113725 0.148793 0.146794 0.143951 
0.117647 0.153685 0.151620 0.149043 
0.121569 0.158523 0.156369 0.154061 
0.125490 0.163307 0.161041 0.159003 
0.129412 0.168043 0.165644 0.163882 
0.133333 0.172707 0.170174 0.168691 
0.137255 0.177290 0.174624 0.173401 
0.141176 0.181801 0.178990 0.178004 
0.145098 0.186258 0.183303 0.182533 
0.149020 0.190651 0.187570 0.186985 
0.152941 0.194980 0.191797 0.191368 
0.156863 0.199255 0.195990 0.195697 
0.160784 0.203496 0.200156 0.199992 
0.164706 0.207709 0.204291 0.204253 
0.168627 0.211898 0.208398 0.208483 
0.172549 0.216053 0.212479 0.212683 
0.176471 0.220170 0.216521 0.216845 
0.180392 0.224278 0.220533 0.221002 
0.184314 0.228380 0.224534 0.225156 
0.188235 0.232462 0.228520 0.229287 
0.192157 0.236519 0.232478 0.233388 
0.196078 0.240554 0.236416 0.237464 
0.200000 0.244566 0.240334 0.241513 
0.203922 0.248555 0.244231 0.245542 
0.207843 0.252512 0.248108 0.249544 
0.211765 0.256429 0.251954 0.253505 
0.215686 0.260307 0.255770 0.257426 
0.219608 0.264148 0.259556 0.261303 
0.223529 0.267961 0.263315 0.265143 
0.227451 0.271751 0.267053 0.268958 
0.231373 0.275514 0.270777 0.272741 
0.235294 0.279243 0.274471 0.276485 
0.239216 0.282938 0.278131 0.280187 
0.243137 0.286616 0.281752 0.283882 
0.247059 0.290287 0.285361 0.287586 
0.250980 0.293952 0.288973 0.291295 
0.254902 0.297607 0.292587 0.294998 
0.258824 0.301247 0.296193 0.298684 
0.262745 0.304865 0.299786 0.302335 
0.266667 0.308467 0.303354 0.305961 
0.270588 0.312054 0.306899 0.309565 
0.274510 0.315619 0.310422 0.313141 
0.278431 0.319160 0.313924 0.316691 
0.282353 0.322674 0.317407 0.320210 
0.286275 0.326161 0.320870 0.323697 
0.290196 0.329623 0.324312 0.327152 
0.294118 0.333074 0.327735 0.330594 
0.298039 0.336526 0.331144 0.334034 
0.301961 0.339978 0.334548 0.337467 
0.305882 0.343428 0.337938 0.340893 
0.309804 0.346879 0.341313 0.344313 
0.313725 0.350330 0.344676 0.347729 
0.317647 0.353780 0.348031 0.351143 
0.321569 0.357227 0.351381 0.354561 
0.325490 0.360661 0.354734 0.357973 
0.329412 0.364091 0.358082 0.361387 
0.333333 0.367525 0.361421 0.364818 
0.337255 0.370961 0.364770 0.368259 
0.341176 0.374401 0.368131 0.371710 
0.345098 0.377851 0.371501 0.375170 
0.349020 0.381307 0.374879 0.378635 
0.352941 0.384765 0.378264 0.382106 
0.356863 0.388214 0.381658 0.385571 
0.360784 0.391650 0.385056 0.389023 
0.364706 0.395069 0.388452 0.392458 
0.368627 0.398471 0.391838 0.395875 
0.372549 0.401879 0.395211 0.399309 
0.376471 0.405300 0.398577 0.402772 
0.380392 0.408735 0.401956 0.406264 
0.384314 0.412180 0.405350 0.409775 
0.388235 0.415633 0.408760 0.413293 
0.392157 0.419083 0.412176 0.416808 
0.396078 0.422527 0.415592 0.420319 
0.400000 0.425967 0.419003 0.423829 
0.403922 0.429403 0.422411 0.427341 
0.407843 0.432837 0.425818 0.430848 
0.411765 0.436268 0.429220 0.434346 
0.415686 0.439691 0.432617 0.437831 
0.419608 0.443105 0.436012 0.441302 
0.423529 0.446531 0.439405 0.444782 
0.427451 0.449970 0.442799 0.448271 
0.431373 0.453416 0.446214 0.451766 
0.435294 0.456864 0.449649 0.455262 
0.439216 0.460311 0.453103 0.458754 
0.443137 0.463765 0.456563 0.462251 
0.447059 0.467226 0.460027 0.465751 
0.450980 0.470688 0.463502 0.469249 
0.454902 0.474153 0.466981 0.472752 
0.458824 0.477621 0.470461 0.476263 
0.462745 0.481090 0.473949 0.479783 
0.466667 0.484561 0.477445 0.483316 
0.470588 0.488035 0.480947 0.486862 
0.474510 0.491512 0.484459 0.490426 
0.478431 0.495003 0.487980 0.494018 
0.482353 0.498516 0.491518 0.497643 
0.486275 0.502042 0.495085 0.501282 
0.490196 0.505566 0.498680 0.504919 
0.494118 0.509087 0.502283 0.508556 
0.498039 0.512607 0.505879 0.512191 
0.501961 0.516125 0.509470 0.515825 
0.505882 0.519640 0.513056 0.519456 
0.509804 0.523151 0.516635 0.523079 
0.513725 0.526661 0.520206 0.526694 
0.517647 0.530168 0.523768 0.530293 
0.521569 0.533672 0.527322 0.533882 
0.525490 0.537182 0.530863 0.537461 
0.529412 0.540689 0.534391 0.541016 
0.533333 0.544190 0.537909 0.544552 
0.537255 0.547695 0.541409 0.548089 
0.541176 0.551208 0.544891 0.551627 
0.545098 0.554726 0.548375 0.555163 
0.549020 0.558242 0.551866 0.558685 
0.552941 0.561749 0.555360 0.562190 
0.556863 0.565242 0.558847 0.565674 
0.560784 0.568716 0.562326 0.569135 
0.564706 0.572177 0.565794 0.572608 
0.568627 0.575643 0.569249 0.576106 
0.572549 0.579116 0.572712 0.579626 
0.576471 0.582597 0.576202 0.583159 
0.580392 0.586075 0.579718 0.586696 
0.584314 0.589546 0.583257 0.590244 
0.588235 0.593009 0.586810 0.593800 
0.592157 0.596463 0.590383 0.597364 
0.596078 0.599910 0.593976 0.600949 
0.600000 0.603363 0.597587 0.604560 
0.603922 0.606828 0.601222 0.608195 
0.607843 0.610304 0.604877 0.611850 
0.611765 0.613789 0.608554 0.615525 
0.615686 0.617284 0.612253 0.619228 
0.619608 0.620795 0.615975 0.622956 
0.623529 0.624327 0.619724 0.626705 
0.627451 0.627883 0.623498 0.630474 
0.631373 0.631465 0.627296 0.634265 
0.635294 0.635073 0.631118 0.638074 
0.639216 0.638704 0.634969 0.641897 
0.643137 0.642352 0.638840 0.645722 
0.647059 0.646006 0.642723 0.649532 
0.650980 0.649660 0.646607 0.653320 
0.654902 0.653305 0.650478 0.657086 
0.658824 0.656939 0.654328 0.660830 
0.662745 0.660561 0.658155 0.664547 
0.666667 0.664170 0.661957 0.668302 
0.670588 0.667778 0.665737 0.672129 
0.674510 0.671432 0.669534 0.676029 
0.678431 0.675134 0.673369 0.680002 
0.682353 0.678887 0.677241 0.684035 
0.686275 0.682689 0.681150 0.688113 
0.690196 0.686540 0.685086 0.692228 
0.694118 0.690433 0.689043 0.696363 
0.698039 0.694361 0.693018 0.700510 
0.701961 0.698314 0.697002 0.704642 
0.705882 0.702288 0.700998 0.708768 
0.709804 0.706273 0.704993 0.712894 
0.713725 0.710276 0.708996 0.717015 
0.717647 0.714296 0.713009 0.721129 
0.721569 0.718338 0.717028 0.725233 
0.725490 0.722400 0.721053 0.729342 
0.729412 0.726476 0.725083 0.733476 
0.733333 0.730576 0.729127 0.737625 
0.737255 0.734707 0.733208 0.741797 
0.741176 0.738861 0.737317 0.745993 
0.745098 0.743036 0.741452 0.750208 
0.749020 0.747230 0.745609 0.754434 
0.752941 0.751441 0.749789 0.758668 
0.756863 0.755654 0.753982 0.762912 
0.760784 0.759870 0.758184 0.767162 
0.764706 0.764089 0.762395 0.771412 
0.768627 0.768309 0.766616 0.775665 
0.772549 0.772533 0.770839 0.779910 
0.776471 0.776764 0.775069 0.784129 
0.780392 0.780994 0.779298 0.788314 
0.784314 0.785213 0.783509 0.792447 
0.788235 0.789410 0.787703 0.796523 
0.792157 0.793576 0.791865 0.800548 
0.796078 0.797711 0.795988 0.804575 
0.800000 0.801824 0.800073 0.808611 
0.803922 0.805948 0.804150 0.812653 
0.807843 0.810086 0.808229 0.816689 
0.811765 0.814238 0.812310 0.820714 
0.815686 0.818397 0.816387 0.824721 
0.819608 0.822552 0.820453 0.828721 
0.823529 0.826701 0.824493 0.832718 
0.827451 0.830850 0.828514 0.836708 
0.831373 0.834998 0.832516 0.840680 
0.835294 0.839132 0.836500 0.844636 
0.839216 0.843247 0.840459 0.848570 
0.843137 0.847342 0.844391 0.852467 
0.847059 0.851403 0.848294 0.856326 
0.850980 0.855419 0.852158 0.860183 
0.854902 0.859397 0.855983 0.864058 
0.858824 0.863361 0.859786 0.867940 
0.862745 0.867309 0.863598 0.871816 
0.866667 0.871229 0.867413 0.875685 
0.870588 0.875118 0.871221 0.879543 
0.874510 0.878983 0.875024 0.883388 
0.878431 0.882824 0.878821 0.887209 
0.882353 0.886640 0.882613 0.891018 
0.886275 0.890434 0.886393 0.894837 
0.890196 0.894232 0.890162 0.898658 
0.894118 0.898036 0.893945 0.902469 
0.898039 0.901846 0.897742 0.906251 
0.901961 0.905653 0.901549 0.910000 
0.905882 0.909457 0.905355 0.913739 
0.909804 0.913273 0.909153 0.917473 
0.913725 0.917105 0.912960 0.921189 
0.917647 0.920940 0.916785 0.924883 
0.921569 0.924776 0.920618 0.928566 
0.925490 0.928622 0.924452 0.932229 
0.929412 0.932469 0.928293 0.935871 
0.933333 0.936315 0.932137 0.939501 
0.937255 0.940164 0.935976 0.943118 
0.941176 0.944012 0.939818 0.946729 
0.945098 0.947858 0.943668 0.950335 
0.949020 0.951695 0.947533 0.953936 
0.952941 0.955517 0.951412 0.957534 
0.956863 0.959319 0.955310 0.961123 
0.960784 0.963100 0.959227 0.964705 
0.964706 0.966864 0.963169 0.968279 
0.968627 0.970611 0.967140 0.971843 
0.972549 0.974341 0.971140 0.975398 
0.976471 0.978055 0.975170 0.978942 
0.980392 0.981753 0.979231 0.982476 
0.984314 0.985434 0.983322 0.986001 
0.988235 0.989100 0.987444 0.989515 
0.992157 0.992749 0.991598 0.993020 
0.996078 0.996382 0.995783 0.996515 
1.000000 1.000000 1.000000 1.000000 
END_DATA
CAL    

DESCRIPTOR "Argyll Calibration options and model"
ORIGINATOR "Argyll dispcal"
CREATED "Sat Jun 22 20:08:51 202"

NUMBER_OF_FIELDS 3
BEGIN_DATA_FORMAT
R_P G_P B_P 
END_DATA_FORMAT

NUMBER_OF_SETS 32
BEGIN_DATA
0.000723038 0.00113834 0.00197714 
0.999277 0.998862 0.998023 
1.319345 1.257919 1.334027 
0.603560 0.566035 0.472639 
0.171040 0.161326 0.185870 
0.126412 0.136020 0.147170 
0.115258 0.170479 0.168590 
0.180225 0.128533 0.138663 
0.115434 0.0781528 0.101553 
0.0672132 0.0877086 0.0636970 
0.0725743 0.0850531 0.0701086 
0.0683138 0.0745407 0.0672981 
0.0607249 0.0630166 0.0681375 
0.0549649 0.0603108 0.0624958 
0.0567728 0.0562041 0.0529559 
0.0510052 0.0512808 0.0540814 
0.0420598 0.0493652 0.0476160 
0.0450622 0.0453750 0.0437881 
0.0417437 0.0424212 0.0411761 
0.0349025 0.0416946 0.0379234 
0.0360299 0.0434968 0.0368246 
0.0338213 0.0390440 0.0338100 
0.0312081 0.0359258 0.0326055 
0.0303565 0.0309339 0.0301449 
0.0266229 0.0278400 0.0277328 
0.0222829 0.0304234 0.0244587 
0.0232632 0.0311029 0.0223212 
0.0221952 0.0309816 0.0235907 
0.0208415 0.0307359 0.0248832 
0.0200378 0.0286970 0.0224799 
0.0181105 0.0260868 0.0238863 
0.0167205 0.0266241 0.0192945 
END_DATA
