colour_profiles/DELL2412M/DELL2412m.cal
CAL    

DESCRIPTOR "Argyll Device Calibration Curves"
ORIGINATOR "Argyll dispcal"
CREATED "Sat Jun 22 21:12:50 2024"
DEVICE_CLASS "DISPLAY"
COLOR_REP "RGB"
VIDEO_LUT_CALIBRATION_POSSIBLE "YES"
TV_OUTPUT_ENCODING "NO"
NATIVE_TARGET_WHITE ""
TARGET_WHITE_XYZ "141.887464 149.777183 163.333276"
TARGET_GAMMA "-2.200000"
DEGREE_OF_BLACK_OUTPUT_OFFSET "1.000000"
BLACK_POINT_CORRECTION "0.193317"
BLACK_NEUTRAL_BLEND_RATE "4.000000"
QUALITY "medium"

NUMBER_OF_FIELDS 4
BEGIN_DATA_FORMAT
RGB_I RGB_R RGB_G RGB_B 
END_DATA_FORMAT

NUMBER_OF_SETS 256
BEGIN_DATA
0.00000 0.00000 0.00000 0.00000 
0.00392157 0.000429999 0.00000 0.00000 
0.00784314 0.00344834 0.000372298 0.00000 
0.0117647 0.00656435 0.00342152 0.00000 
0.0156863 0.00978284 0.00657616 0.00264193 
0.0196078 0.0131089 0.00984176 0.00548912 
0.0235294 0.0165482 0.0132243 0.00846609 
0.0274510 0.0201064 0.0167302 0.0115819 
0.0313725 0.0237898 0.0203662 0.0148465 
0.0352941 0.0276053 0.0241399 0.0182708 
0.0392157 0.0315598 0.0280591 0.0218669 
0.0431373 0.0356536 0.0321290 0.0256479 
0.0470588 0.0398779 0.0363501 0.0296241 
0.0509804 0.0442214 0.0407202 0.0337907 
0.0549020 0.0486699 0.0452336 0.0381466 
0.0588235 0.0532065 0.0498765 0.0426892 
0.0627451 0.0578170 0.0546335 0.0474046 
0.0666667 0.0624840 0.0594847 0.0522702 
0.0705882 0.0671846 0.0644042 0.0572567 
0.0745098 0.0719140 0.0693671 0.0623283 
0.0784314 0.0766701 0.0743488 0.0674593 
0.0823529 0.0814407 0.0793273 0.0726290 
0.0862745 0.0862225 0.0842971 0.0778142 
0.0901961 0.0910144 0.0892546 0.0829999 
0.0941176 0.0958105 0.0941784 0.0881780 
0.0980392 0.100615 0.0990665 0.0933261 
0.101961 0.105408 0.103904 0.0984413 
0.105882 0.110185 0.108698 0.103491 
0.109804 0.114933 0.113435 0.108477 
0.113725 0.119640 0.118101 0.113379 
0.117647 0.124312 0.122702 0.118202 
0.121569 0.128951 0.127250 0.122965 
0.125490 0.133542 0.131749 0.127658 
0.129412 0.138097 0.136218 0.132301 
0.133333 0.142620 0.140662 0.136912 
0.137255 0.147115 0.145078 0.141515 
0.141176 0.151566 0.149449 0.146094 
0.145098 0.155985 0.153793 0.150660 
0.149020 0.160380 0.158116 0.155227 
0.152941 0.164750 0.162416 0.159782 
0.156863 0.169106 0.166692 0.164337 
0.160784 0.173429 0.170927 0.168858 
0.164706 0.177713 0.175110 0.173322 
0.168627 0.181949 0.179244 0.177720 
0.172549 0.186153 0.183363 0.182082 
0.176471 0.190313 0.187459 0.186391 
0.180392 0.194429 0.191529 0.190647 
0.184314 0.198501 0.195574 0.194856 
0.188235 0.202551 0.199600 0.199037 
0.192157 0.206575 0.203594 0.203180 
0.196078 0.210574 0.207552 0.207292 
0.200000 0.214549 0.211482 0.211380 
0.203922 0.218498 0.215373 0.215427 
0.207843 0.222424 0.219226 0.219455 
0.211765 0.226344 0.223073 0.223484 
0.215686 0.230256 0.226911 0.227508 
0.219608 0.234146 0.230730 0.231512 
0.223529 0.238013 0.234520 0.235500 
0.227451 0.241854 0.238283 0.239464 
0.231373 0.245671 0.242015 0.243400 
0.235294 0.249468 0.245717 0.247326 
0.239216 0.253249 0.249402 0.251230 
0.243137 0.257006 0.253069 0.255099 
0.247059 0.260739 0.256717 0.258929 
0.250980 0.264448 0.260345 0.262717 
0.254902 0.268137 0.263948 0.266483 
0.258824 0.271814 0.267541 0.270222 
0.262745 0.275471 0.271124 0.273919 
0.266667 0.279103 0.274679 0.277567 
0.270588 0.282706 0.278200 0.281174 
0.274510 0.286292 0.281685 0.284783 
0.278431 0.289887 0.285165 0.288402 
0.282353 0.293487 0.288655 0.292023 
0.286275 0.297082 0.292152 0.295637 
0.290196 0.300669 0.295648 0.299234 
0.294118 0.304234 0.299139 0.302801 
0.298039 0.307774 0.302616 0.306354 
0.301961 0.311302 0.306085 0.309890 
0.305882 0.314809 0.309559 0.313401 
0.309804 0.318294 0.313029 0.316893 
0.313725 0.321757 0.316496 0.320361 
0.317647 0.325196 0.319957 0.323804 
0.321569 0.328610 0.323413 0.327222 
0.325490 0.332003 0.326863 0.330636 
0.329412 0.335394 0.330311 0.334036 
0.333333 0.338787 0.333760 0.337426 
0.337255 0.342180 0.337197 0.340805 
0.341176 0.345575 0.340623 0.344177 
0.345098 0.348973 0.344038 0.347544 
0.349020 0.352373 0.347441 0.350907 
0.352941 0.355779 0.350831 0.354274 
0.356863 0.359195 0.354213 0.357632 
0.360784 0.362614 0.357581 0.360987 
0.364706 0.366049 0.360927 0.364356 
0.368627 0.369497 0.364272 0.367732 
0.372549 0.372952 0.367620 0.371113 
0.376471 0.376417 0.370965 0.374503 
0.380392 0.379886 0.374311 0.377895 
0.384314 0.383361 0.377659 0.381290 
0.388235 0.386839 0.381010 0.384680 
0.392157 0.390311 0.384364 0.388054 
0.396078 0.393771 0.387709 0.391404 
0.400000 0.397210 0.391040 0.394728 
0.403922 0.400643 0.394354 0.398054 
0.407843 0.404099 0.397659 0.401412 
0.411765 0.407579 0.400987 0.404804 
0.415686 0.411081 0.404344 0.408223 
0.419608 0.414597 0.407731 0.411658 
0.423529 0.418123 0.411139 0.415106 
0.427451 0.421655 0.414562 0.418563 
0.431373 0.425197 0.418000 0.422034 
0.435294 0.428748 0.421455 0.425520 
0.439216 0.432306 0.424929 0.429023 
0.443137 0.435865 0.428421 0.432538 
0.447059 0.439422 0.431921 0.436062 
0.450980 0.442965 0.435427 0.439584 
0.454902 0.446505 0.438927 0.443124 
0.458824 0.450053 0.442421 0.446696 
0.462745 0.453600 0.445932 0.450292 
0.466667 0.457141 0.449462 0.453899 
0.470588 0.460668 0.453007 0.457502 
0.474510 0.464189 0.456552 0.461114 
0.478431 0.467704 0.460093 0.464741 
0.482353 0.471214 0.463646 0.468368 
0.486275 0.474722 0.467208 0.472004 
0.490196 0.478229 0.470774 0.475646 
0.494118 0.481735 0.474346 0.479294 
0.498039 0.485240 0.477925 0.482949 
0.501961 0.488747 0.481515 0.486613 
0.505882 0.492254 0.485119 0.490287 
0.509804 0.495765 0.488736 0.493980 
0.513725 0.499290 0.492369 0.497698 
0.517647 0.502839 0.496027 0.501433 
0.521569 0.506405 0.499714 0.505164 
0.525490 0.509990 0.503407 0.508890 
0.529412 0.513591 0.507096 0.512613 
0.533333 0.517211 0.510783 0.516329 
0.537255 0.520847 0.514468 0.520039 
0.541176 0.524499 0.518148 0.523740 
0.545098 0.528166 0.521823 0.527437 
0.549020 0.531847 0.525485 0.531122 
0.552941 0.535544 0.529138 0.534812 
0.556863 0.539257 0.532779 0.538502 
0.560784 0.542973 0.536423 0.542179 
0.564706 0.546691 0.540064 0.545860 
0.568627 0.550422 0.543690 0.549560 
0.572549 0.554163 0.547327 0.553278 
0.576471 0.557911 0.550985 0.557006 
0.580392 0.561655 0.554663 0.560734 
0.584314 0.565390 0.558348 0.564447 
0.588235 0.569101 0.562035 0.568136 
0.592157 0.572791 0.565712 0.571833 
0.596078 0.576491 0.569375 0.575569 
0.600000 0.580201 0.573056 0.579332 
0.603922 0.583913 0.576774 0.583110 
0.607843 0.587621 0.580523 0.586892 
0.611765 0.591326 0.584296 0.590687 
0.615686 0.595031 0.588091 0.594498 
0.619608 0.598736 0.591913 0.598331 
0.623529 0.602450 0.595759 0.602195 
0.627451 0.606179 0.599630 0.606083 
0.631373 0.609921 0.603519 0.609993 
0.635294 0.613674 0.607421 0.613921 
0.639216 0.617444 0.611332 0.617886 
0.643137 0.621241 0.615251 0.621889 
0.647059 0.625063 0.619195 0.625933 
0.650980 0.628906 0.623162 0.630012 
0.654902 0.632767 0.627157 0.634135 
0.658824 0.636649 0.631181 0.638282 
0.662745 0.640540 0.635241 0.642441 
0.666667 0.644440 0.639317 0.646591 
0.670588 0.648347 0.643403 0.650709 
0.674510 0.652248 0.647480 0.654777 
0.678431 0.656129 0.651536 0.658784 
0.682353 0.659983 0.655563 0.662729 
0.686275 0.663811 0.659556 0.666639 
0.690196 0.667623 0.663517 0.670621 
0.694118 0.671493 0.667470 0.674685 
0.698039 0.675431 0.671485 0.678831 
0.701961 0.679439 0.675567 0.683051 
0.705882 0.683507 0.679718 0.687325 
0.709804 0.687622 0.683929 0.691636 
0.713725 0.691770 0.688181 0.695968 
0.717647 0.695936 0.692456 0.700321 
0.721569 0.700120 0.696737 0.704668 
0.725490 0.704309 0.701020 0.709015 
0.729412 0.708499 0.705290 0.713365 
0.733333 0.712692 0.709550 0.717721 
0.737255 0.716886 0.713803 0.722079 
0.741176 0.721074 0.718037 0.726426 
0.745098 0.725258 0.722249 0.730788 
0.749020 0.729438 0.726434 0.735163 
0.752941 0.733630 0.730617 0.739543 
0.756863 0.737832 0.734812 0.743936 
0.760784 0.742046 0.739006 0.748341 
0.764706 0.746269 0.743208 0.752751 
0.768627 0.750502 0.747417 0.757167 
0.772549 0.754744 0.751641 0.761594 
0.776471 0.758996 0.755886 0.766040 
0.780392 0.763257 0.760154 0.770495 
0.784314 0.767530 0.764448 0.774982 
0.788235 0.771806 0.768762 0.779489 
0.792157 0.776101 0.773113 0.783999 
0.796078 0.780408 0.777499 0.788504 
0.800000 0.784713 0.781897 0.792973 
0.803922 0.789021 0.786301 0.797388 
0.807843 0.793324 0.790691 0.801783 
0.811765 0.797608 0.795049 0.806225 
0.815686 0.801883 0.799371 0.810709 
0.819608 0.806200 0.803701 0.815212 
0.823529 0.810565 0.808071 0.819715 
0.827451 0.814960 0.812470 0.824192 
0.831373 0.819368 0.816875 0.828652 
0.835294 0.823775 0.821267 0.833104 
0.839216 0.828178 0.825631 0.837531 
0.843137 0.832578 0.829977 0.841914 
0.847059 0.836969 0.834309 0.846265 
0.850980 0.841340 0.838616 0.850572 
0.854902 0.845690 0.842884 0.854819 
0.858824 0.850016 0.847119 0.859023 
0.862745 0.854301 0.851306 0.863242 
0.866667 0.858546 0.855438 0.867464 
0.870588 0.862791 0.859528 0.871668 
0.874510 0.867044 0.863623 0.875858 
0.878431 0.871297 0.867719 0.880030 
0.882353 0.875557 0.871798 0.884178 
0.886275 0.879820 0.875859 0.888283 
0.890196 0.884084 0.879908 0.892371 
0.894118 0.888340 0.883944 0.896455 
0.898039 0.892598 0.887958 0.900526 
0.901961 0.896869 0.891960 0.904565 
0.905882 0.901140 0.895978 0.908556 
0.909804 0.905395 0.900004 0.912515 
0.913725 0.909622 0.904031 0.916459 
0.917647 0.913833 0.908043 0.920378 
0.921569 0.918029 0.912050 0.924267 
0.925490 0.922200 0.916083 0.928146 
0.929412 0.926348 0.920139 0.932006 
0.933333 0.930487 0.924216 0.935839 
0.937255 0.934615 0.928335 0.939661 
0.941176 0.938742 0.932488 0.943464 
0.945098 0.942859 0.936675 0.947257 
0.949020 0.946973 0.940906 0.951041 
0.952941 0.951084 0.945177 0.954821 
0.956863 0.955193 0.949489 0.958599 
0.960784 0.959303 0.953849 0.962377 
0.964706 0.963416 0.958261 0.966153 
0.968627 0.967528 0.962720 0.969927 
0.972549 0.971630 0.967225 0.973698 
0.976471 0.975720 0.971774 0.977465 
0.980392 0.979797 0.976367 0.981229 
0.984314 0.983862 0.981004 0.984990 
0.988235 0.987915 0.985684 0.988747 
0.992157 0.991955 0.990410 0.992501 
0.996078 0.995984 0.995182 0.996252 
1.000000 1.000000 1.000000 1.000000 
END_DATA
CAL    

DESCRIPTOR "Argyll Calibration options and model"
ORIGINATOR "Argyll dispcal"
CREATED "Sat Jun 22 21:12:50 202"

NUMBER_OF_FIELDS 3
BEGIN_DATA_FORMAT
R_P G_P B_P 
END_DATA_FORMAT

NUMBER_OF_SETS 32
BEGIN_DATA
0.000123356 0.000979669 0.00183796 
0.999877 0.999020 0.998162 
1.370900 1.269646 1.342487 
0.627413 0.596746 0.569718 
0.144280 0.159888 0.149753 
0.124336 0.138304 0.114903 
0.0997296 0.115660 0.160107 
0.0802844 0.105148 0.0832461 
0.0947734 0.0921997 0.0768974 
0.0789919 0.0815486 0.0720125 
0.0655889 0.0735011 0.0628286 
0.0604055 0.0671179 0.0719869 
0.0540845 0.0610951 0.0582582 
0.0521953 0.0550912 0.0551632 
0.0461136 0.0511216 0.0496584 
0.0447708 0.0492951 0.0457649 
0.0422747 0.0464024 0.0432238 
0.0370910 0.0433507 0.0401007 
0.0337455 0.0411462 0.0325079 
0.0324982 0.0387468 0.0376350 
0.0287731 0.0374781 0.0306377 
0.0278416 0.0347520 0.0342510 
0.0257205 0.0332830 0.0304935 
0.0235806 0.0307955 0.0231466 
0.0218085 0.0312572 0.0223078 
0.0205068 0.0285504 0.0262297 
0.0192181 0.0256489 0.0231248 
0.0176246 0.0277141 0.0230583 
0.0165056 0.0225939 0.0217944 
0.0148900 0.0247785 0.0203278 
0.0135054 0.0235151 0.0198388 
0.0137054 0.0201424 0.0189482 
END_DATA
